X: 29374
T: Newmarket, The
R: polka
M: 2/4
K: Dmajor
|:DF AF/A/|dc BA|EF GF/G/|BA FA|
DF AF/A/|dc BA|EF G/B/G/E/|DF D2:|
|:fA fA|fA f2|eB eB|=c/^c/d e2|
fA fA|fA f2|eB =c/^c/d|ed d2:|

